X: 18199
T: Humours Of Glendart, The
R: jig
M: 6/8
K: Dmajor
|:BF/F/F AD/D/D|FEF AFD|BF/F/F ADA|AFD EFA|
BF/F/F AD/D/D|FEF AFD|gg/f/e fdB|AFD DFA:|
|:d>ef ddB|AFA AFA|def ddA|Be/e/e edB|
d>ef ddB|AFA AFA|gg/f/e fdB|AFD DFA:|

